X:33
T:The Famine Song (Praties They Grow Small)
S:Patrick Galvin Songs of the Resistance
M:4/4
L:1/8
F:Digital Tradition <//sniff.numachi.com/~rickheit/dtrad/
K:G
EF| GF EG (FE) DF| E6 EF| GF EG (FE) DF| E6|
GA| BB BB B2 AG| AA AA A2(EF)|\
GF EG (FE) DF| E2 DF E2| EF| GF EG (FE) DF| E6||
